dist/img/folder.svg

<svg width="45" height="37" viewBox="0 0 45 37" fill="none" xmlns="http://www.w3.org/2000/svg">
<path fill-rule="evenodd" clip-rule="evenodd" d="M2.46543 5.61388C1.60397 5.61388 0.901109 6.31674 0.901109 7.1782C0.901109 8.04146 1.60397 8.74253 2.46543 8.74253C3.3287 8.74253 4.02976 8.04146 4.02976 7.1782C4.02976 6.31674 3.3287 5.61388 2.46543 5.61388ZM2.46543 9.64364C1.10656 9.64364 0 8.53888 0 7.1782C0 5.81933 1.10656 4.71277 2.46543 4.71277C3.82611 4.71277 4.93087 5.81933 4.93087 7.1782C4.93087 8.53888 3.82611 9.64364 2.46543 9.64364Z" fill="#192331"/>
<path fill-rule="evenodd" clip-rule="evenodd" d="M43.9957 28.9671C43.9903 28.9671 43.9849 28.9671 43.9795 28.9671L42.5576 28.9184C42.3089 28.9094 42.1142 28.7004 42.1232 28.4517C42.1322 28.2084 42.3323 28.0173 42.5738 28.0173C42.5792 28.0173 42.5846 28.0173 42.5882 28.0173L44.0101 28.066C44.2589 28.075 44.4535 28.2841 44.4445 28.5328C44.4373 28.7761 44.2372 28.9671 43.9957 28.9671Z" fill="#192331"/>
<path fill-rule="evenodd" clip-rule="evenodd" d="M42.5611 32.33C42.453 32.33 42.3449 32.2921 42.2584 32.2128L41.2059 31.2558C41.022 31.0882 41.0094 30.8035 41.177 30.6179C41.3446 30.434 41.6294 30.4214 41.8132 30.589L42.8657 31.5478C43.0495 31.7154 43.0622 32.0002 42.8945 32.184C42.8062 32.2813 42.6837 32.33 42.5611 32.33Z" fill="#192331"/>
<path fill-rule="evenodd" clip-rule="evenodd" d="M9.29944 36.1363H36.1525V18.2042H9.29944V36.1363Z" fill="#192331"/>
<path fill-rule="evenodd" clip-rule="evenodd" d="M9.74999 35.6857H35.7019V18.6548H9.74999V35.6857ZM36.1525 36.5868H9.29943C9.05073 36.5868 8.84888 36.385 8.84888 36.1363V18.2042C8.84888 17.9555 9.05073 17.7537 9.29943 17.7537H36.1525C36.4012 17.7537 36.603 17.9555 36.603 18.2042V36.1363C36.603 36.385 36.4012 36.5868 36.1525 36.5868Z" fill="#192331"/>
<path fill-rule="evenodd" clip-rule="evenodd" d="M26.4133 36.1362H9.29941L3.07996 15.9208H9.29941L26.4133 36.1362Z" fill="#192331"/>
<path fill-rule="evenodd" clip-rule="evenodd" d="M9.6329 35.6857H25.4402L9.09043 16.3713H3.68919L9.6329 35.6857ZM26.4133 36.5868H9.29949C9.10125 36.5868 8.92823 36.457 8.86876 36.2678L2.64931 16.0541C2.60786 15.9172 2.63309 15.7676 2.71779 15.6522C2.8025 15.5387 2.93766 15.4702 3.08004 15.4702H9.29949C9.43285 15.4702 9.55721 15.5279 9.64371 15.6288L26.7558 35.8443C26.8693 35.9794 26.8945 36.1669 26.8206 36.3255C26.7468 36.4841 26.5882 36.5868 26.4133 36.5868Z" fill="#192331"/>
<path fill-rule="evenodd" clip-rule="evenodd" d="M9.68335 24.2669H36.5364V5.34363H9.68335V24.2669Z" fill="#F3F6F5"/>
<path fill-rule="evenodd" clip-rule="evenodd" d="M10.1339 23.8163H36.0858V5.79418H10.1339V23.8163ZM36.5364 24.7175H9.68334C9.43464 24.7175 9.23279 24.5156 9.23279 24.2669V5.34362C9.23279 5.09491 9.43464 4.89307 9.68334 4.89307H36.5364C36.7851 4.89307 36.9869 5.09491 36.9869 5.34362V24.2669C36.9869 24.5156 36.7851 24.7175 36.5364 24.7175Z" fill="#192331"/>
<rect x="11.5973" y="3.37195" width="26.853" height="18.9233" rx="0.180222" fill="#F3F6F5" stroke="#192331" stroke-width="0.901109"/>
<path fill-rule="evenodd" clip-rule="evenodd" d="M13.459 19.3738H40.312V0.450562H13.459V19.3738Z" fill="#FBBC02"/>
<path fill-rule="evenodd" clip-rule="evenodd" d="M13.9095 18.9233H39.8615V0.901109H13.9095V18.9233ZM40.312 19.8244H13.459C13.2103 19.8244 13.0084 19.6225 13.0084 19.3738V0.450554C13.0084 0.201848 13.2103 0 13.459 0H40.312C40.5625 0 40.7626 0.201848 40.7626 0.450554V19.3738C40.7626 19.6225 40.5625 19.8244 40.312 19.8244Z" fill="#FBBC02"/>
<path fill-rule="evenodd" clip-rule="evenodd" d="M13.933 14.9404C14.0123 14.9404 14.3691 14.3817 14.425 14.3168C14.8431 13.8284 15.3081 13.3743 15.8235 12.9868C16.548 12.4443 17.395 12.1506 18.2998 12.1397C19.0098 12.1325 19.628 12.5182 20.3092 12.648C21.8447 12.9399 22.2736 11.5883 22.3529 10.3429C22.4034 9.55897 22.6125 8.74978 22.9801 8.05232C23.4721 7.11516 24.3318 6.47718 25.4095 6.43032C26.1845 6.39788 26.9468 6.62676 27.6749 6.8989C29.1581 7.45578 30.6666 8.13882 32.2904 7.86849C33.8439 7.60717 34.8171 6.46096 35.1343 4.9525C36.0894 0.418124 38.7135 2.32667 38.7135 4.15592C38.7135 5.98517 38.7135 14.9404 38.7135 14.9404C38.7135 14.9404 13.9618 14.9404 13.933 14.9404Z" fill="#F3F6F5"/>
<path fill-rule="evenodd" clip-rule="evenodd" d="M38.3205 29.9204L36.1525 36.1363H9.29944L15.8992 17.213H42.7522L38.3205 29.9204Z" fill="#F3F6F5"/>
<path fill-rule="evenodd" clip-rule="evenodd" d="M36.1524 36.5868H9.2994C9.15342 36.5868 9.01645 36.5166 8.93174 36.3976C8.84884 36.2769 8.82722 36.1255 8.87407 35.9867L15.4738 17.0634C15.5369 16.8832 15.7081 16.7625 15.8991 16.7625H42.7522C42.8981 16.7625 43.0351 16.8327 43.1198 16.9517C43.2045 17.0706 43.2261 17.2238 43.1775 17.3608L39.8776 26.8224C39.7965 27.0567 39.5388 27.1829 39.3045 27.1C39.0684 27.0171 38.9459 26.7612 39.027 26.5251L42.1178 17.6636H16.2199L9.93378 35.6857H35.8334L37.8952 29.7727C37.9763 29.5366 38.234 29.4122 38.4683 29.4951C38.7044 29.5762 38.8269 29.8339 38.7458 30.0682L36.5778 36.2841C36.5147 36.4661 36.3453 36.5868 36.1524 36.5868Z" fill="#192331"/>
<path fill-rule="evenodd" clip-rule="evenodd" d="M37.9205 21.1922H28.4282C28.1795 21.1922 27.9777 20.9904 27.9777 20.7417C27.9777 20.4912 28.1795 20.2911 28.4282 20.2911H37.9205C38.1692 20.2911 38.371 20.4912 38.371 20.7417C38.371 20.9904 38.1692 21.1922 37.9205 21.1922Z" fill="#192331"/>
<path fill-rule="evenodd" clip-rule="evenodd" d="M36.7347 24.157H31.7479C31.4992 24.157 31.2974 23.9551 31.2974 23.7064C31.2974 23.4577 31.4992 23.2559 31.7479 23.2559H36.7347C36.9834 23.2559 37.1852 23.4577 37.1852 23.7064C37.1852 23.9551 36.9834 24.157 36.7347 24.157Z" fill="#192331"/>
</svg>

<svg width="45" height="37" fill="none" xmlns="http://www.w3.org/2000/svg"><path fill-rule="evenodd" clip-rule="evenodd" d="M2.465 5.614c-.861 0-1.564.703-1.564 1.564a1.565 1.565 0 101.564-1.564zm0 4.03A2.468 2.468 0 010 7.178a2.469 2.469 0 012.465-2.465 2.467 2.467 0 010 4.93zm41.531 19.323h-.017l-1.421-.049a.451.451 0 01.016-.9h.014l1.422.048a.451.451 0 01-.014.901zm-1.435 3.363a.445.445 0 01-.303-.117l-1.052-.957a.45.45 0 11.607-.667l1.053.959a.45.45 0 01-.305.782zM9.3 36.136h26.853V18.204H9.299v17.932z" fill="#192331"/><path fill-rule="evenodd" clip-rule="evenodd" d="M9.75 35.686h25.952V18.655H9.75v17.03zm26.403.9H9.299a.45.45 0 01-.45-.45V18.204a.45.45 0 01.45-.45h26.854a.45.45 0 01.45.45v17.932a.45.45 0 01-.45.45z" fill="#192331"/><path fill-rule="evenodd" clip-rule="evenodd" d="M26.413 36.136H9.3L3.08 15.921H9.3l17.113 20.215z" fill="#192331"/><path fill-rule="evenodd" clip-rule="evenodd" d="M9.633 35.686H25.44L9.09 16.37h-5.4l5.943 19.315zm16.78.9H9.3a.452.452 0 01-.43-.318L2.65 16.054a.457.457 0 01.069-.402.454.454 0 01.362-.182H9.3c.133 0 .257.058.344.159l17.112 20.215a.452.452 0 01-.343.743z" fill="#192331"/><path fill-rule="evenodd" clip-rule="evenodd" d="M9.683 24.267h26.853V5.344H9.683v18.923z" fill="#F3F6F5"/><path fill-rule="evenodd" clip-rule="evenodd" d="M10.134 23.816h25.952V5.794H10.134v18.022zm26.402.902H9.683a.45.45 0 01-.45-.451V5.344a.45.45 0 01.45-.45h26.853a.45.45 0 01.45.45v18.923a.45.45 0 01-.45.45z" fill="#192331"/><rect x="11.597" y="3.372" width="26.853" height="18.923" rx=".18" fill="#F3F6F5" stroke="#192331" stroke-width=".901"/><path fill-rule="evenodd" clip-rule="evenodd" d="M13.459 19.374h26.853V.45H13.459v18.923z" fill="#FBBC02"/><path fill-rule="evenodd" clip-rule="evenodd" d="M13.91 18.923h25.95V.901H13.91v18.022zm26.402.901H13.459a.45.45 0 01-.45-.45V.45a.45.45 0 01.45-.451h26.853c.25 0 .45.202.45.45v18.924c0 .248-.2.45-.45.45z" fill="#FBBC02"/><path fill-rule="evenodd" clip-rule="evenodd" d="M13.933 14.94c.08 0 .436-.558.492-.623a8.884 8.884 0 011.398-1.33 4.173 4.173 0 012.477-.847c.71-.008 1.328.378 2.01.508 1.535.292 1.964-1.06 2.043-2.305.05-.784.26-1.593.627-2.29.492-.938 1.352-1.576 2.43-1.623.774-.032 1.537.197 2.265.469 1.483.557 2.992 1.24 4.615.97 1.554-.262 2.527-1.408 2.844-2.917.955-4.534 3.58-2.625 3.58-.796V14.94H13.933zM38.32 29.92l-2.167 6.216H9.299l6.6-18.923h26.853L38.321 29.92z" fill="#F3F6F5"/><path fill-rule="evenodd" clip-rule="evenodd" d="M36.152 36.587H9.3a.45.45 0 01-.425-.6l6.6-18.924a.45.45 0 01.425-.3h26.853a.45.45 0 01.425.598l-3.3 9.461a.45.45 0 11-.85-.297l3.09-8.861H16.22L9.934 35.686h25.9l2.061-5.913a.45.45 0 11.85.296l-2.167 6.215a.448.448 0 01-.426.303z" fill="#192331"/><path fill-rule="evenodd" clip-rule="evenodd" d="M37.92 21.192h-9.492a.45.45 0 010-.9h9.492a.45.45 0 110 .9zm-1.185 2.965h-4.987a.45.45 0 010-.901h4.987a.45.45 0 010 .901z" fill="#192331"/></svg>
